X:175
T:Tears
C:Django Reinhardt
N:
L:1/8
Q:1/4=100
M:4/4
K:Eb
z8 |: "Cm"Cc ec "Cm/Eb"Ec ec | "Dm7-5"Df ba "G7"zd ag | "Cm"Cc dc "Cm/Eb"Ec dc | 
"Dm7-5"Df ba "G7"zd ag | "C7-9/Db"[g_d=E][gdE] [gdE][gdE] [a2d2E2] [a2d2E2] | 
"Fm/C"[f3A3C3][fAC] z4 | "Bdim"[fd][fd] [fd][fd] [g2d2] [g2d2] | "Cm7/Bb"[e3c3][ec] z4 | 
"Adim"[ec][ec] [ec][ec] [f2c2] [f2c2] | "Fm6/Ab"[d2c2] [dc][dc] z2 "Ab7"[e'b]"G7"[d'=a] | 
z2 "Ab7"[e'b]"G7"[d'=a] z2 [=b_g][c'=g] |1 "Cm"z2 [gd][gd] "G+"zG, =A,=B, :|2 "Cm"z2 [a2e2] "G+"[g2d2] [g2=e2] | 
|: =ef/e/ _e=e [=b2g2] [_b2_g2] | [=a2d2] [a_d][ad] [a=d][ad] [ae][ae] | =ef/e/ _e=e [=b2g2] [_b2_g2] | 
[=a2d2] [a_d][ad] [a=d][ad] [ae][ae] | [=e'b][d'=a] [c'g][bf] [a2=e2] [g2d2] | 
[=af][c'f] z2 [f2c2] a2 |1 [=a=ec][aec] [a2e2c2] [=e'ac][e'ac] z2 | [ae=B][aeB] [a2e2B2] [e'aB][e'aB] z2 :|2 [ae][ae] [ae][ae] [gd][gd] [gd][=B_G] | 
[=e4c4G4] zG, =A,=B, |: CG eC EG eE | Dc ba2a gg :| [g=e][ge] [ge][ge] [a2e2] [a2e2] | 
[f4e4] [f4e4] | [fd][fd] [fd][fd] [g2d2] [g2d2] | "Cm7/Bb"[e2c2] [ec]z z4 | "Adim"[ec][ec] [ec][ec] [f2c2] [f2c2] | 
"Fm6/Ab"[d2c2] [dc][dc] z2 [eB][d=A] | z2 [eB][d3=A3] [=bd_G=B,][c'e=GC] | z8 | 


